X:25
T:The bucks of Oranmore
T:The bucks of Cranmore
R:Reel
O:Ireland, Scotland
D:Show the Ladies
B:O'Neill's 1199
B:Roche 1 n149
B:Kerr's Fourth p9, p19
B:Ceol Rince 2 n248
S:My arrangement from various sources
Z:Transcription, arrangement, chords:Mike Long
M:C|
L:1/8
K:D
dB|\
"D"(3(ABA) FA A2dB|"D"(3(ABA) FA "A"BE~E2|"D"(3(ABA) FA ~A2 (3(Bcd)|"G"egfd "A"ecdB|\
"D"(3(ABA) FA A2dB|
"D"(3(ABA) FA "A"BE~E2|"D"DEFG AFAB|"G"defd "A"~e2dB||\
"D"AD (3(FED) A2dB|"D"ADFA "A"BE~E2|
"D"AD (3(FED) A2 (3(Bcd)|"G"egfd "A"~e2dB|\
"D"AD (3(FED) A2dB|"D"ADFA "A"BE~E2|"D"DEFG AFAB|
"G"defd "A"~e2fg|]\
"D"(3(aba) fd eddf|"D"(3(aba) fd "Bm"eB~B2|"D"(3(aba) fd eddf| "G"(3(gfe) fd "A"eB~B2|
"D"(3(aba) fd eddf|"D"(3(aba) fd "G"eB~B2|"D"(3(aba) fd eddf| "G"(3(gfe) fd "A"edBd||\
"D"(3(fgf) df "A"(3(efe) de|
"D"(3(fgf) df "G"edBd|"D"(3(fgf) df "A"(3(efe) df|"G"(3(gfe) fd "A"edBd|\
"D"(3(fgf) df "A"(3(efe) de|"D"(3(fgf) df "G"edBd|
"D"fa~a2 bfaf|"G"(3(gfe) fd "A"edBd|]\
"D"Adfd edfd|"D"Adfd "G"edBd|"D"Adfd "A"edef|
"G"(3(gfe) fd "A"edBd|"D"Adfd edfd|\
"D"Adfd "G"ed (3(Bcd)|"D"fa~a2 bfaf|"G"(3(gfe) fd "A"e2dB|]
